public/media/icons-technologies/HTML5.svg

<svg width="140" height="140" viewBox="0 0 140 140" fill="none" xmlns="http://www.w3.org/2000/svg">
<g clip-path="url(#clip0_205_1383)">
<path d="M26.774 117.43L18 10.2004L122.784 10.4159L113.506 117.43L70.7875 129.8L26.774 117.43Z" fill="#E34F26"/>
<path d="M70.7875 119.444V20.4127L113.938 20.5563L106.243 109.159L70.7875 119.444Z" fill="#EF652A"/>
<path d="M102.072 45.1527L103.294 32.0631H36.9144L40.5818 72.1937H86.3935L84.597 89.3098L69.9256 93.2646L55.0386 88.9498L54.2477 78.7376H41.0854L42.8837 99.5939L69.9247 107.145L97.1812 99.5939L100.849 58.8887H52.7368L51.3703 45.1527H102.072Z" fill="white"/>
</g>
<defs>
<clipPath id="clip0_205_1383">
<rect width="104.784" height="120" fill="white" transform="translate(18 10)"/>
</clipPath>
</defs>
</svg>

<svg xmlns="http://www.w3.org/2000/svg" fill="none" viewBox="0 0 140 140">
  <g clip-path="url(#a)">
    <path fill="#E34F26" d="M26.77 117.43 18 10.2l104.78.22-9.27 107.01-42.72 12.37-44.02-12.37Z"/>
    <path fill="#EF652A" d="M70.79 119.44V20.41l43.15.15-7.7 88.6-35.45 10.28Z"/>
    <path fill="#fff" d="m102.07 45.15 1.22-13.09H36.91l3.67 40.13H86.4l-1.8 17.12-14.66 3.95-14.9-4.31-.78-10.21H41.09l1.8 20.85 27.03 7.55 27.26-7.55 3.67-40.7H52.74l-1.37-13.74h50.7Z"/>
  </g>
  <defs>
    <clipPath id="a">
      <path fill="#fff" d="M0 0h104.78v120H0z" transform="translate(18 10)"/>
    </clipPath>
  </defs>
</svg>
